X:1
T:[ID 2v-5 (=2-139a)]
T:[ID 2v-5 (=2-139a)]
T:Bezeichnung standardisiert: Siciliano Siciliano
T:Urheber unbekannt Datum in der hier transkribierten schriftlichen Quelle: 1767
C:Urheber unbekannt
C:Datum in der hier transkribierten schriftlichen Quelle: 1767
L:1/8
M:6/8
K:G
V:1 bass 
V:1
 z | G,,2 G,, G,,2 G,, | G,, z D, G,2 G,, | G,,G,,G,, G,,G,,G,, | !/!G,,6 | !/!D,6 | %6
 G,,3 A,,2 A,, | D,3 z2 D, | A,3 A,,3 | !/!D,6 | G,3 ^G,3 | !/!A,6 | !/!A,6 | !/!A,6 | %14
 D,3 A,2 A,, | D,D,D, F,F,F, | D,D,D, G,2 G,, | A,, A,,2 D,2 C, | D,3 A,2 A,, | D,2 z z D,2 | %20
 A,2 z2 z A,, | D,F,A, D,2 :: z | D3 D,3 | D2 A, D,3 | ^D,3 B,,3 | E,2 B,, E,,3 | A,,3 B,,3 | %28
 E,,>G,,B,, E,2 z | A,,3 ^C,3 | D,2 A,, D,3 | G,,3 A,,2 B,, | !/!D,6 | G,3 ^C,3 | !/!D,6 | !/!D,6 | %36
 !/!D,6 | G,3 G,, D,2 | !/!G,,6 | G,,3 C,G,,C, | E,3 C,2 E, | G,3 D,2 D, | !/!G,,6 | !/!D,6 | %44
 !/!G,,6 | !/!G,,6 | !/!D,6 | G,D,B,, G,,3 :| !fermata!D,2 z E, A,,2 | B,,B,,E, z z D, | %50
 ^C,D,A, A,,D,F, | A,A,,D, D2 ^C | DD,F, D, G,2 | z D, G,2 z G,, | D,A,,F,, D,, D,2 | %55
 z D,G, D,B,,G,, |"^Ende fehlt" G,,2 x4 | x6 | x6 | x6 | x6 | x6 | x6 | x6 | x6 | x6 | x6 | x6 | %68

